Origami/22x22/apps/astromenace.svg

<svg width="22" height="22" version="1.1" viewBox="0 0 22 22" xmlns="http://www.w3.org/2000/svg">
 <rect transform="matrix(0,-1,-1,0,0,0)" x="-21" y="-21" width="20" height="20" rx="1" ry="1" style="fill:#345784"/>
 <path d="m2 0.9999998c-0.554 0-1 0.446-1 1v0.5c0-0.554 0.446-1 1-1h18c0.554 0 1 0.446 1 1v-0.5c0-0.554-0.446-1-1-1z" style="fill:#ffffff;opacity:.1"/>
 <path d="m2 21.5c-0.554 0-1-0.446-1-1v-0.5c0 0.554 0.446 1 1 1h18c0.554 0 1-0.446 1-1v0.5c0 0.554-0.446 1-1 1z" style="opacity:.2"/>
 <path d="m11.268555 5.5009765c-0.05213 0.0017-0.106005 0.00692-0.164063 0.01465-0.652974 0.086972-0.832206 0.2449585-1.231445 1.083008-0.269285 0.565257-0.404001 0.7046945-0.750976 0.7792965-1.622071-1.1816555-1.622071 0.622069-1.941407 1.122069-0.4377225-0.3840555-1.4058456-1.002904-1.9679751-1.4671785-0.5025775-0.4150895-1.0000905-0.6665785-1.394573-0.404599-0.3126006 0.2191975-0.5781943 0.689498-0.6748048 1.7685545-0.131985 1.474153 0.00138 2.022032 0.9375003 3.242873 1.05856 1.380517 3.0353651 2.76153 5.5324696 4.495117 1.0816 0.750887 1.988004 1.365233 2.014649 1.365233 0.149771 0-1.4476-2.074965-2.415039-3.136719-1.4458465-1.586798-1.712646-2.080353-1.743891-2.792968-0.0282165-0.643827 0.2474135-1.070313 0.6169375-1.070313 0.1342735 0 0.7419925 0.385419 1.4121095 1.145508 0.558445 0.603445 1.068722 1.240176 1.514649 1.861328 0.944309 1.179113 2.039417 1.329499 2.446289 0.335938 0.394138-0.966783-0.0062-2.664578-0.907227-3.847657-0.10137-0.432673 0.09025-0.498501 0.533203-0.498046 0.560278 5.5e-4 2.124015 0.59275 2.763356 1.146484 0.790081 0.68429 0.923221 0.822049 1.802734 2.566406 0.519168 1.029676 1.034099 1.990021 1.144531 2.133789 0.196669 0.256047 0.200802 0.254631 0.204102-0.06543-0.165962-2.665157-1.090971-5.342712-3.090821-7.1630855-0.338285-0.2956975-1.830618-1.016991-2.705738-1.602539-1.275027-0.853132-1.56968-1.0237665-1.93457-1.011719z" style="opacity:.2"/>
 <path d="m11.268555 5.0009765c-0.05213 0.0017-0.106005 0.00692-0.164063 0.01465-0.652974 0.086972-0.832206 0.2449585-1.231445 1.083008-0.269285 0.565257-0.404001 0.7046945-0.750976 0.7792965-1.622071-1.1816555-1.622071 0.622069-1.941407 1.122069-0.4377225-0.3840555-1.4058456-1.002904-1.9679751-1.4671785-0.5025775-0.4150895-1.0000905-0.6665785-1.394573-0.404599-0.3126006 0.2191975-0.5781943 0.689498-0.6748048 1.7685545-0.131985 1.474153 0.00138 2.022032 0.9375003 3.242873 1.05856 1.380517 3.0353651 2.76153 5.5324696 4.495117 1.0816 0.750887 1.988004 1.365233 2.014649 1.365233 0.149771 0-1.4476-2.074965-2.415039-3.136719-1.4458465-1.586798-1.712646-2.080353-1.743891-2.792968-0.0282165-0.643827 0.2474135-1.070313 0.6169375-1.070313 0.1342735 0 0.7419925 0.385419 1.4121095 1.145508 0.558445 0.603445 1.068722 1.240176 1.514649 1.861328 0.944309 1.179113 2.039417 1.329499 2.446289 0.335938 0.394138-0.966783-0.0062-2.664578-0.907227-3.847657-0.10137-0.432673 0.09025-0.4985015 0.533203-0.4980465 0.560278 5.5e-4 2.124015 0.5927505 2.763356 1.1464845 0.790081 0.68429 0.923221 0.822049 1.802734 2.566406 0.519168 1.029676 1.034099 1.990021 1.144531 2.133789 0.196669 0.256047 0.200802 0.254631 0.204102-0.06543-0.165962-2.665157-1.090971-5.342712-3.090821-7.1630855-0.338285-0.2956975-1.830618-1.016991-2.705738-1.602539-1.275027-0.853132-1.56968-1.0237665-1.93457-1.011719z" style="fill:#8d8069"/>
 <ellipse transform="matrix(.37859229 -.92556355 .62510084 .780544 0 0)" cx="2.134" cy="17.904" rx="1.045" ry="1.469" style="opacity:.2"/>
 <ellipse transform="matrix(.37859229 -.92556355 .62510084 .780544 0 0)" cx="2.492" cy="17.688" rx="1.045" ry="1.469" style="fill:#ffffff"/>
 <path d="m11.269531 5c-0.05213 0.0017-0.107957 0.0079-0.166015 0.015625-0.652974 0.086972-0.83123 0.2459349-1.230469 1.0839844-0.269285 0.565257-0.403025 0.7046948-0.75 0.7792968-1.6220711-1.1816555-1.6240235 0.6210938-1.9433595 1.1210938-0.4377225-0.3840555-1.4046674-1.0025224-1.9667969-1.4667969-0.5025775-0.4150895-1.0000487-0.6662763-1.3945312-0.4042969-0.3126006 0.2191975-0.5791708 0.6885217-0.6757813 1.7675782-0.0379949 0.4243688-0.0441957 0.7632672-0.0253906 1.0722656 0.0060748-0.184324 0.0056589-0.3518805 0.0253906-0.5722656 0.0966105-1.0790565 0.3631807-1.5483807 0.6757813-1.7675782 0.3944825-0.2619794 0.8919537-0.0107926 1.3945312 0.4042969 0.5621295 0.4642745 1.5290744 1.0827414 1.9667969 1.4667969 0.319336-0.5 0.3212884-2.3027493 1.9433595-1.1210938 0.346975-0.074602 0.480715-0.2140398 0.75-0.7792968 0.399239-0.8380495 0.577495-0.9970124 1.230469-1.0839844 0.058058-0.00773 0.113885-0.013925 0.166015-0.015625 0.36489-0.012048 0.658567 0.1605399 1.933594 1.0136719 0.87512 0.585548 2.366793 1.305865 2.705078 1.6015625 1.93233 1.7589126 2.854222 4.3175536 3.064453 6.8925776 0.02066-0.0181 0.02582-0.08292 0.02734-0.230468-0.165958-2.665157-1.091943-5.341736-3.091793-7.1621096-0.338285-0.2956975-1.829958-1.0160145-2.705078-1.6015625-1.275027-0.853132-1.568704-1.0257194-1.933594-1.0136719zm1.34375 4.583984c-0.0906 0.07049-0.111232 0.19382-0.06055 0.410157 0.605484 0.79502 0.974927 1.819308 1.039063 2.701171 0.07375-0.940308-0.294455-2.169426-0.978516-3.111328zm-5.1191404 1.646485c-0.01574 0.106709-0.030845 0.215378-0.025391 0.339843 0.031245 0.712615 0.2982941 1.206171 1.7441414 2.792969 0.562169 0.616975 1.303052 1.541044 1.824218 2.236328 0.141577 0.093763 0.583977 0.400391 0.591797 0.400391 0.149771 0-1.448576-2.074965-2.416015-3.136719-1.3331682-1.463134-1.6508031-1.999867-1.7187504-2.632812z" style="fill:#ffffff;opacity:.1"/>
</svg>

<svg xmlns="http://www.w3.org/2000/svg" width="22" height="22" version="1.1" viewBox="0 0 22 22">
 <rect style="fill:#345784" width="20" height="20" x="-21" y="-21" rx="1" ry="1" transform="matrix(0,-1,-1,0,0,0)"/>
 <path style="opacity:0.1;fill:#ffffff" d="m 2,0.9999998 c -0.554,0 -1,0.446 -1,1 v 0.5 c 0,-0.554 0.446,-1 1,-1 h 18 c 0.554,0 1,0.446 1,1 v -0.5 c 0,-0.554 -0.446,-1 -1,-1 z"/>
 <path style="opacity:0.2" d="m 2,21.5 c -0.554,0 -1,-0.446 -1,-1 V 20 c 0,0.554 0.446,1 1,1 h 18 c 0.554,0 1,-0.446 1,-1 v 0.5 c 0,0.554 -0.446,1 -1,1 z"/>
 <path style="opacity:0.2" d="m 11.268555,5.5009765 c -0.05213,0.0017 -0.106005,0.00692 -0.164063,0.01465 C 10.451518,5.6025985 10.272286,5.760585 9.873047,6.5986345 9.603762,7.1638915 9.469046,7.303329 9.122071,7.377931 7.5,6.1962755 7.5,8 7.180664,8.5 6.7429415,8.1159445 5.7748184,7.497096 5.2126889,7.0328215 4.7101114,6.617732 4.2125984,6.366243 3.8181159,6.6282225 3.5055153,6.84742 3.2399216,7.3177205 3.1433111,8.396777 c -0.131985,1.474153 0.00138,2.022032 0.9375003,3.242873 1.05856,1.380517 3.0353651,2.76153 5.5324696,4.495117 1.0816,0.750887 1.988004,1.365233 2.014649,1.365233 0.149771,0 -1.4476,-2.074965 -2.415039,-3.136719 C 7.7670445,12.776483 7.500245,12.282928 7.469,11.570313 7.4407835,10.926486 7.7164135,10.5 8.0859375,10.5 c 0.1342735,0 0.7419925,0.385419 1.4121095,1.145508 0.558445,0.603445 1.068722,1.240176 1.514649,1.861328 0.944309,1.179113 2.039417,1.329499 2.446289,0.335938 0.394138,-0.966783 -0.0062,-2.664578 -0.907227,-3.847657 -0.10137,-0.432673 0.09025,-0.498501 0.533203,-0.498046 0.560278,5.5e-4 2.124015,0.59275 2.763356,1.146484 0.790081,0.68429 0.923221,0.822049 1.802734,2.566406 0.519168,1.029676 1.034099,1.990021 1.144531,2.133789 0.196669,0.256047 0.200802,0.254631 0.204102,-0.06543 C 18.833722,12.613163 17.908713,9.935608 15.908863,8.1152345 15.570578,7.819537 14.078245,7.0982435 13.203125,6.5126955 11.928098,5.6595635 11.633445,5.488929 11.268555,5.5009765 Z"/>
 <path style="fill:#8d8069" d="m 11.268555,5.0009765 c -0.05213,0.0017 -0.106005,0.00692 -0.164063,0.01465 C 10.451518,5.1025985 10.272286,5.260585 9.873047,6.0986345 9.603762,6.6638915 9.469046,6.803329 9.122071,6.877931 7.5,5.6962755 7.5,7.5 7.180664,8 6.7429415,7.6159445 5.7748184,6.997096 5.2126889,6.5328215 4.7101114,6.117732 4.2125984,5.866243 3.8181159,6.1282225 3.5055153,6.34742 3.2399216,6.8177205 3.1433111,7.896777 c -0.131985,1.474153 0.00138,2.022032 0.9375003,3.242873 1.05856,1.380517 3.0353651,2.76153 5.5324696,4.495117 C 10.694881,16.385654 11.601285,17 11.62793,17 11.777701,17 10.18033,14.925035 9.212891,13.863281 7.7670445,12.276483 7.500245,11.782928 7.469,11.070313 7.4407835,10.426486 7.7164135,10 8.0859375,10 8.220211,10 8.82793,10.385419 9.498047,11.145508 c 0.558445,0.603445 1.068722,1.240176 1.514649,1.861328 0.944309,1.179113 2.039417,1.329499 2.446289,0.335938 0.394138,-0.966783 -0.0062,-2.664578 -0.907227,-3.847657 -0.10137,-0.432673 0.09025,-0.4985015 0.533203,-0.4980465 0.560278,5.5e-4 2.124015,0.5927505 2.763356,1.1464845 0.790081,0.68429 0.923221,0.822049 1.802734,2.566406 0.519168,1.029676 1.034099,1.990021 1.144531,2.133789 0.196669,0.256047 0.200802,0.254631 0.204102,-0.06543 C 18.833722,12.113163 17.908713,9.435608 15.908863,7.6152345 15.570578,7.319537 14.078245,6.5982435 13.203125,6.0126955 11.928098,5.1595635 11.633445,4.988929 11.268555,5.0009765 Z"/>
 <ellipse style="opacity:0.2" cx="2.134" cy="17.904" rx="1.045" ry="1.469" transform="matrix(0.37859229,-0.92556355,0.62510084,0.780544,0,0)"/>
 <ellipse style="fill:#ffffff" cx="2.492" cy="17.688" rx="1.045" ry="1.469" transform="matrix(0.37859229,-0.92556355,0.62510084,0.780544,0,0)"/>
 <path style="opacity:0.1;fill:#ffffff" d="m 11.269531,5 c -0.05213,0.0017 -0.107957,0.0079 -0.166015,0.015625 -0.652974,0.086972 -0.83123,0.2459349 -1.230469,1.0839844 -0.269285,0.565257 -0.403025,0.7046948 -0.75,0.7792968 C 7.5009759,5.6972507 7.4990235,7.5 7.1796875,8 6.741965,7.6159445 5.7750201,6.9974776 5.2128906,6.5332031 4.7103131,6.1181136 4.2128419,5.8669268 3.8183594,6.1289062 3.5057588,6.3481037 3.2391886,6.8174279 3.1425781,7.8964844 3.1045832,8.3208532 3.0983824,8.6597516 3.1171875,8.96875 3.1232623,8.784426 3.1228464,8.6168695 3.1425781,8.3964844 3.2391886,7.3174279 3.5057588,6.8481037 3.8183594,6.6289062 4.2128419,6.3669268 4.7103131,6.6181136 5.2128906,7.0332031 5.7750201,7.4974776 6.741965,8.1159445 7.1796875,8.5 7.4990235,8 7.5009759,6.1972507 9.123047,7.3789062 9.470022,7.3043042 9.603762,7.1648664 9.873047,6.5996094 10.272286,5.7615599 10.450542,5.602597 11.103516,5.515625 11.161574,5.507895 11.217401,5.5017 11.269531,5.5 c 0.36489,-0.012048 0.658567,0.1605399 1.933594,1.0136719 0.87512,0.585548 2.366793,1.305865 2.705078,1.6015625 1.93233,1.7589126 2.854222,4.3175536 3.064453,6.8925776 0.02066,-0.0181 0.02582,-0.08292 0.02734,-0.230468 C 18.834038,12.112187 17.908053,9.435608 15.908203,7.6152344 15.569918,7.3195369 14.078245,6.5992199 13.203125,6.0136719 11.928098,5.1605399 11.634421,4.9879525 11.269531,5 Z m 1.34375,4.583984 c -0.0906,0.07049 -0.111232,0.19382 -0.06055,0.410157 0.605484,0.79502 0.974927,1.819308 1.039063,2.701171 0.07375,-0.940308 -0.294455,-2.169426 -0.978516,-3.111328 z m -5.1191404,1.646485 c -0.01574,0.106709 -0.030845,0.215378 -0.025391,0.339843 0.031245,0.712615 0.2982941,1.206171 1.7441414,2.792969 0.562169,0.616975 1.303052,1.541044 1.824218,2.236328 C 11.178686,16.693372 11.621086,17 11.628906,17 11.778677,17 10.18033,14.925035 9.212891,13.863281 7.8797228,12.400147 7.5620879,11.863414 7.4941406,11.230469 Z"/>
</svg>
